X: 7
T: The Woman Of The House
R: reel
M: 4/4
L: 1/8
K: Dmaj
|:DFFE F3E|DF F2 (3Bcd AF|(3EFE DF E2(3FGA|BF F2 BFAF|
DFFA F3E|DF F2 B2 AF|DEFD E2 DE |(3FED ED Bd d2:||
|:c3A BA (3FGA|BAcA BA (3FGA|c3A BA (3FGA|Beed e3d|
c3A BA (3FGA|BAcA BAFE|DEFD E2 DE |(3FED ED Bd d2:||
|A2 GA F3E|DF F2 BFAF|E2 DF E2(3FGA|BF F2 BFAF|
DFFA F3E|DF F2 B2 AF|DEFD E2 DE |(3FED ED Bd d2:||
|:cA (3FGA BA (3FGA|BAcA BA (3FGA|cA (3FGA BA (3FGA| Beed e3d|
c3A BA (3FGA|BAcA BAFE|DEFD E2 DE |(3FED ED Bd d2:||
|A2 FE F4|DF F2 BFAF|E2 DF E2 (3FGA|BF F2 AF F2|
|A2 GA F3E|DF F2 BdAF|DEFD E2 DE |(3FED ED Bd d2:||
|:(3FGA| c3A BAcA |(3FGA BAcA (3FGA |c3A BA (3FGA |(e4 e)3d |
c3A BA (3FGA|BAcA BAFE|DEFD E2 DE |(3FED ED Bd d2:||


Tune 321	Setting 23378

